public/sheesh/24.svg

<svg fill="none" height="81" viewBox="0 0 85 81" width="85" xmlns="http://www.w3.org/2000/svg" xmlns:xlink="http://www.w3.org/1999/xlink"><filter id="a" color-interpolation-filters="sRGB" filterUnits="userSpaceOnUse" height="13.766" width="13.851" x="35.574" y="2.57109"><feFlood flood-opacity="0" result="BackgroundImageFix"/><feBlend in="SourceGraphic" in2="BackgroundImageFix" mode="normal" result="shape"/><feGaussianBlur result="effect1_foregroundBlur_341_13316" stdDeviation=".605078"/></filter><filter id="b" color-interpolation-filters="sRGB" filterUnits="userSpaceOnUse" height="55.2638" width="54.8662" x="15.4482" y="12.0507"><feFlood flood-opacity="0" result="BackgroundImageFix"/><feBlend in="SourceGraphic" in2="BackgroundImageFix" mode="normal" result="shape"/><feColorMatrix in="SourceAlpha" result="hardAlpha" type="matrix" values="0 0 0 0 0 0 0 0 0 0 0 0 0 0 0 0 0 0 127 0"/><feOffset dy="-.80677"/><feGaussianBlur stdDeviation=".403385"/><feComposite in2="hardAlpha" k2="-1" k3="1" operator="arithmetic"/><feColorMatrix type="matrix" values="0 0 0 0 0.616667 0 0 0 0 0.407 0 0 0 0 0 0 0 0 0.25 0"/><feBlend in2="shape" mode="normal" result="effect1_innerShadow_341_13316"/></filter><filter id="c" color-interpolation-filters="sRGB" filterUnits="userSpaceOnUse" height="46.9944" width="45.7217" x="20.0195" y="16.5897"><feFlood flood-opacity="0" result="BackgroundImageFix"/><feBlend in="SourceGraphic" in2="BackgroundImageFix" mode="normal" result="shape"/><feColorMatrix in="SourceAlpha" result="hardAlpha" type="matrix" values="0 0 0 0 0 0 0 0 0 0 0 0 0 0 0 0 0 0 127 0"/><feOffset dy=".80677"/><feGaussianBlur stdDeviation=".80677"/><feComposite in2="hardAlpha" k2="-1" k3="1" operator="arithmetic"/><feColorMatrix type="matrix" values="0 0 0 0 0.7 0 0 0 0 0.465967 0 0 0 0 0.0116667 0 0 0 1 0"/><feBlend in2="shape" mode="normal" result="effect1_innerShadow_341_13316"/><feColorMatrix in="SourceAlpha" result="hardAlpha" type="matrix" values="0 0 0 0 0 0 0 0 0 0 0 0 0 0 0 0 0 0 127 0"/><feOffset dy="-.80677"/><feGaussianBlur stdDeviation=".403385"/><feComposite in2="hardAlpha" k2="-1" k3="1" operator="arithmetic"/><feColorMatrix type="matrix" values="0 0 0 0 1 0 0 0 0 0.72 0 0 0 0 0 0 0 0 1 0"/><feBlend in2="effect1_innerShadow_341_13316" mode="normal" result="effect2_innerShadow_341_13316"/></filter><filter id="d" color-interpolation-filters="sRGB" filterUnits="userSpaceOnUse" height="27.8909" width="32.0276" x="26.8329" y="26.4727"><feFlood flood-opacity="0" result="BackgroundImageFix"/><feColorMatrix in="SourceAlpha" result="hardAlpha" type="matrix" values="0 0 0 0 0 0 0 0 0 0 0 0 0 0 0 0 0 0 127 0"/><feOffset dy=".80677"/><feGaussianBlur stdDeviation=".403385"/><feComposite in2="hardAlpha" operator="out"/><feColorMatrix type="matrix" values="0 0 0 0 0.358333 0 0 0 0 0.1935 0 0 0 0 0 0 0 0 1 0"/><feBlend in2="BackgroundImageFix" mode="normal" result="effect1_dropShadow_341_13316"/><feBlend in="SourceGraphic" in2="effect1_dropShadow_341_13316" mode="normal" result="shape"/></filter><filter id="e" color-interpolation-filters="sRGB" filterUnits="userSpaceOnUse" height="24.3445" width="11.5086" x="42.6734" y="30.1695"><feFlood flood-opacity="0" result="BackgroundImageFix"/><feBlend in="SourceGraphic" in2="BackgroundImageFix" mode="normal" result="shape"/><feGaussianBlur result="effect1_foregroundBlur_341_13316" stdDeviation="1.21016"/></filter><linearGradient id="f"><stop offset=".484631" stop-color="#ffe590"/><stop offset=".488859" stop-color="#ffc700"/></linearGradient><linearGradient id="g" gradientUnits="userSpaceOnUse" x1="37.4248" x2="47.575" xlink:href="#f" y1="5.6726" y2="5.6726"/><linearGradient id="h" gradientUnits="userSpaceOnUse" x1="47.5752" x2="37.425" xlink:href="#f" y1="75.2571" y2="75.2571"/><linearGradient id="i" gradientUnits="userSpaceOnUse" x1="75.3947" x2="70.3764" xlink:href="#f" y1="53.4972" y2="62.2545"/><linearGradient id="j" gradientUnits="userSpaceOnUse" x1="9.60525" x2="14.6236" xlink:href="#f" y1="27.4325" y2="18.6752"/><linearGradient id="k" gradientUnits="userSpaceOnUse" x1="70.3195" x2="75.3379" xlink:href="#f" y1="18.705" y2="27.4623"/><linearGradient id="l" gradientUnits="userSpaceOnUse" x1="14.6805" x2="9.66215" xlink:href="#f" y1="62.2228" y2="53.4654"/><linearGradient id="m" gradientUnits="userSpaceOnUse" x1="22.8532" x2="64.1654" y1="17.0275" y2="63.4526"><stop offset="0" stop-color="#ffeca9"/><stop offset=".237301" stop-color="#ffd600"/><stop offset="1" stop-color="#f90"/></linearGradient><linearGradient id="n" gradientUnits="userSpaceOnUse" x1="42.8808" x2="42.8808" y1="9.07617" y2="71.0966"><stop offset="0" stop-color="#fff" stop-opacity=".5"/><stop offset="1" stop-color="#fff" stop-opacity="0"/></linearGradient><linearGradient id="o" gradientUnits="userSpaceOnUse" x1="25.3546" x2="60.0973" y1="19.2864" y2="61.5191"><stop offset="0" stop-color="#ffc700"/><stop offset="1" stop-color="#d58500"/></linearGradient><linearGradient id="p" gradientUnits="userSpaceOnUse" x1="27.7519" x2="46.3456" y1="21.4007" y2="62.8817"><stop offset="0" stop-color="#ffb13c"/><stop offset=".484375" stop-color="#b45f1d"/><stop offset="1" stop-color="#743110"/></linearGradient><linearGradient id="q" gradientUnits="userSpaceOnUse" x1="29.6081" x2="38.8384" y1="37.3556" y2="44.1189"><stop offset="0" stop-color="#ffe176"/><stop offset="1" stop-color="#ffa800"/></linearGradient><linearGradient id="r" gradientUnits="userSpaceOnUse" x1="55.1935" x2="49.6343" y1="35.4021" y2="45.4839"><stop offset="0" stop-color="#ffe483"/><stop offset="1" stop-color="#f29100"/></linearGradient><linearGradient id="s"><stop offset=".49738" stop-color="#fce77b"/><stop offset=".49738" stop-color="#ffcc1d"/></linearGradient><linearGradient id="t" gradientUnits="userSpaceOnUse" x1="38.0253" x2="47.8804" xlink:href="#s" y1="39.6142" y2="39.6142"/><linearGradient id="u" gradientUnits="userSpaceOnUse" x1="38.0243" x2="47.8794" xlink:href="#s" y1="39.6161" y2="39.6161"/><linearGradient id="v"><stop offset="0" stop-color="#ffcd1d"/><stop offset="1" stop-color="#ff971d"/></linearGradient><linearGradient id="w" gradientUnits="userSpaceOnUse" x1="42.8839" x2="42.8839" xlink:href="#v" y1="26.4727" y2="29.9428"/><linearGradient id="x" gradientUnits="userSpaceOnUse" x1="29.0699" x2="29.0699" xlink:href="#v" y1="31.834" y2="34.6732"/><linearGradient id="y" gradientUnits="userSpaceOnUse" x1="56.6236" x2="56.6236" xlink:href="#v" y1="31.834" y2="34.6732"/><linearGradient id="z" gradientUnits="userSpaceOnUse" x1="34.22" x2="51.6067" y1="51.5731" y2="51.5731"><stop offset="0" stop-color="#fde07c"/><stop offset="1" stop-color="#fde07c" stop-opacity="0"/></linearGradient><mask id="A" height="19" maskUnits="userSpaceOnUse" width="18" x="34" y="31"><path d="m41.7955 31.8496c.4426-.9042 1.7313-.9042 2.1739 0l7.5567 15.4386c.3935.804-.1918 1.7421-1.0869 1.7421h-15.1134c-.8952 0-1.4805-.9381-1.087-1.7421z" fill="url(#u)"/></mask><path d="m42.4999 0 12.2088 14.1815h-24.4176z" fill="url(#g)"/><path d="m42.5001 80.9297-12.2088-14.1815h24.4176z" fill="url(#h)"/><g filter="url(#a)"><path d="m42.4994 3.78125 1.4144 4.2687 4.3008 1.4039-4.3008 1.40385-1.4144 4.2688-1.4145-4.2688-4.3007-1.40385 4.3007-1.4039z" fill="#fff"/><path d="m42.4994 3.9095 1.3761 4.15314.0064.01934.0194.00632 4.1833 1.36555-4.1833 1.36555-.0194.0063-.0064.0194-1.3761 4.1531-1.3762-4.1531-.0064-.0194-.0193-.0063-4.1833-1.36555 4.1833-1.36555.0193-.00632.0064-.01934z" stroke="#faff00" stroke-width=".080677"/></g><path d="m77.8067 60.6959-18.4782 3.4036 12.2088-20.9887z" fill="url(#i)"/><path d="m7.19329 20.2338 18.47821-3.4036-12.2088 20.9886z" fill="url(#j)"/><path d="m77.8066 20.2311-6.2694 17.585-12.2088-20.9886z" fill="url(#k)"/><path d="m7.19343 60.6967 6.26937-17.5851 12.2088 20.9886z" fill="url(#l)"/><path d="m73.9223 40.0864c0 17.0137-13.8963 30.8085-31.0415 30.8085-17.1451 0-31.0414-13.7948-31.0414-30.8085s13.8963-30.80854 31.0414-30.80854c17.1452 0 31.0415 13.79484 31.0415 30.80854z" fill="url(#m)" stroke="url(#n)" stroke-width=".403385"/><g filter="url(#b)"><ellipse cx="42.8812" cy="40.0859" fill="url(#o)" rx="27.433" ry="27.2285"/></g><g filter="url(#c)"><ellipse cx="42.8804" cy="40.0869" fill="url(#p)" rx="22.8608" ry="22.6904"/></g><g filter="url(#d)"><path d="m29.381 36.2105c-.4067-1.0926.815-2.0719 1.7929-1.4373l18.2932 11.8718c1.0108.656.5463 2.2252-.6588 2.2252h-13.874c-.5055 0-.9578-.3142-1.1341-.7879z" fill="url(#q)"/><path d="m56.3757 36.1959c.411-1.09-.8044-2.0743-1.7852-1.4459l-18.5579 11.8912c-1.0178.6521-.5559 2.229.6528 2.229h14.0748c.5037 0 .9547-.3119 1.1324-.7832z" fill="url(#r)"/><path d="m41.7965 31.8476c.4426-.9042 1.7313-.9042 2.1739 0l7.5567 15.4386c.3935.804-.1918 1.7422-1.0869 1.7422h-15.1135c-.8951 0-1.4804-.9382-1.0869-1.7422z" fill="url(#t)"/><g mask="url(#A)"><g filter="url(#e)"><ellipse cx="9.94621" cy="2.69926" fill="#fff5d2" fill-opacity=".8" rx="9.94621" ry="2.69926" transform="matrix(.204188 .978932 -.979534 .201279 49.041 32.0625)"/></g></g><ellipse cx="42.8839" cy="28.2077" fill="url(#w)" rx="1.74812" ry="1.73509"/><ellipse cx="29.0699" cy="33.2536" fill="url(#x)" rx="1.43028" ry="1.41962"/><ellipse cx="56.6236" cy="33.2536" fill="url(#y)" rx="1.43028" ry="1.41962"/><rect fill="url(#z)" height="2.35324" rx="1.17662" width="17.3867" x="34.0225" y="50.3965"/></g><g fill="#fff"><path d="m30.6884 20.4219.5658 1.7075 1.7203.5615-1.7203.5616-.5658 1.7075-.5657-1.7075-1.7204-.5616 1.7204-.5615z"/><path d="m23.8303 12.8574 1.3201 3.9841 4.0141 1.3104-4.0141 1.3103-1.3201 3.9841-1.3202-3.9841-4.014-1.3103 4.014-1.3104z"/></g></svg>

<svg width="85" height="81" viewBox="0 0 85 81" fill="none" xmlns="http://www.w3.org/2000/svg">
<path d="M42.4999 0L54.7087 14.1815H30.2911L42.4999 0Z" fill="url(#paint0_linear_341_13316)"/>
<path d="M42.5001 80.9297L30.2913 66.7482L54.7089 66.7482L42.5001 80.9297Z" fill="url(#paint1_linear_341_13316)"/>
<g filter="url(#filter0_f_341_13316)">
<path d="M42.4994 3.78125L43.9138 8.04995L48.2146 9.45385L43.9138 10.8577L42.4994 15.1265L41.0849 10.8577L36.7842 9.45385L41.0849 8.04995L42.4994 3.78125Z" fill="white"/>
<path d="M42.4994 3.9095L43.8755 8.06264L43.8819 8.08198L43.9013 8.0883L48.0846 9.45385L43.9013 10.8194L43.8819 10.8257L43.8755 10.8451L42.4994 14.9982L41.1232 10.8451L41.1168 10.8257L41.0975 10.8194L36.9142 9.45385L41.0975 8.0883L41.1168 8.08198L41.1232 8.06264L42.4994 3.9095Z" stroke="#FAFF00" stroke-width="0.080677"/>
</g>
<path d="M77.8067 60.6959L59.3285 64.0995L71.5373 43.1108L77.8067 60.6959Z" fill="url(#paint2_linear_341_13316)"/>
<path d="M7.19329 20.2338L25.6715 16.8302L13.4627 37.8188L7.19329 20.2338Z" fill="url(#paint3_linear_341_13316)"/>
<path d="M77.8066 20.2311L71.5372 37.8161L59.3284 16.8275L77.8066 20.2311Z" fill="url(#paint4_linear_341_13316)"/>
<path d="M7.19343 60.6967L13.4628 43.1116L25.6716 64.1002L7.19343 60.6967Z" fill="url(#paint5_linear_341_13316)"/>
<path d="M73.9223 40.0864C73.9223 57.1001 60.026 70.8949 42.8808 70.8949C25.7357 70.8949 11.8394 57.1001 11.8394 40.0864C11.8394 23.0727 25.7357 9.27786 42.8808 9.27786C60.026 9.27786 73.9223 23.0727 73.9223 40.0864Z" fill="url(#paint6_linear_341_13316)" stroke="url(#paint7_linear_341_13316)" stroke-width="0.403385"/>
<g filter="url(#filter1_i_341_13316)">
<ellipse cx="42.8812" cy="40.0859" rx="27.433" ry="27.2285" fill="url(#paint8_linear_341_13316)"/>
</g>
<g filter="url(#filter2_ii_341_13316)">
<ellipse cx="42.8804" cy="40.0869" rx="22.8608" ry="22.6904" fill="url(#paint9_linear_341_13316)"/>
</g>
<g filter="url(#filter3_d_341_13316)">
<path d="M29.381 36.2105C28.9743 35.1179 30.196 34.1386 31.1739 34.7732L49.4671 46.645C50.4779 47.301 50.0134 48.8702 48.8083 48.8702H34.9343C34.4288 48.8702 33.9765 48.556 33.8002 48.0823L29.381 36.2105Z" fill="url(#paint10_linear_341_13316)"/>
<path d="M56.3757 36.1959C56.7867 35.1059 55.5713 34.1216 54.5905 34.75L36.0326 46.6412C35.0148 47.2933 35.4767 48.8702 36.6854 48.8702H50.7602C51.2639 48.8702 51.7149 48.5583 51.8926 48.087L56.3757 36.1959Z" fill="url(#paint11_linear_341_13316)"/>
<path d="M41.7965 31.8476C42.2391 30.9434 43.5278 30.9434 43.9704 31.8476L51.5271 47.2862C51.9206 48.0902 51.3353 49.0284 50.4402 49.0284H35.3267C34.4316 49.0284 33.8463 48.0902 34.2398 47.2862L41.7965 31.8476Z" fill="url(#paint12_linear_341_13316)"/>
<mask id="mask0_341_13316" style="mask-type:alpha" maskUnits="userSpaceOnUse" x="34" y="31" width="18" height="19">
<path d="M41.7955 31.8496C42.2381 30.9454 43.5268 30.9454 43.9694 31.8496L51.5261 47.2882C51.9196 48.0922 51.3343 49.0303 50.4392 49.0303H35.3258C34.4306 49.0303 33.8453 48.0922 34.2388 47.2882L41.7955 31.8496Z" fill="url(#paint13_linear_341_13316)"/>
</mask>
<g mask="url(#mask0_341_13316)">
<g filter="url(#filter4_f_341_13316)">
<ellipse cx="9.94621" cy="2.69926" rx="9.94621" ry="2.69926" transform="matrix(0.204188 0.978932 -0.979534 0.201279 49.041 32.0625)" fill="#FFF5D2" fill-opacity="0.8"/>
</g>
</g>
<ellipse cx="42.8839" cy="28.2077" rx="1.74812" ry="1.73509" fill="url(#paint14_linear_341_13316)"/>
<ellipse cx="29.0699" cy="33.2536" rx="1.43028" ry="1.41962" fill="url(#paint15_linear_341_13316)"/>
<ellipse cx="56.6236" cy="33.2536" rx="1.43028" ry="1.41962" fill="url(#paint16_linear_341_13316)"/>
<rect x="34.0225" y="50.3965" width="17.3867" height="2.35324" rx="1.17662" fill="url(#paint17_linear_341_13316)"/>
</g>
<path d="M30.6884 20.4219L31.2542 22.1294L32.9745 22.6909L31.2542 23.2525L30.6884 24.96L30.1227 23.2525L28.4023 22.6909L30.1227 22.1294L30.6884 20.4219Z" fill="white"/>
<path d="M23.8303 12.8574L25.1504 16.8415L29.1645 18.1519L25.1504 19.4622L23.8303 23.4463L22.5101 19.4622L18.4961 18.1519L22.5101 16.8415L23.8303 12.8574Z" fill="white"/>
<defs>
<filter id="filter0_f_341_13316" x="35.574" y="2.57109" width="13.851" height="13.766" filterUnits="userSpaceOnUse" color-interpolation-filters="sRGB">
<feFlood flood-opacity="0" result="BackgroundImageFix"/>
<feBlend mode="normal" in="SourceGraphic" in2="BackgroundImageFix" result="shape"/>
<feGaussianBlur stdDeviation="0.605078" result="effect1_foregroundBlur_341_13316"/>
</filter>
<filter id="filter1_i_341_13316" x="15.4482" y="12.0507" width="54.8662" height="55.2638" filterUnits="userSpaceOnUse" color-interpolation-filters="sRGB">
<feFlood flood-opacity="0" result="BackgroundImageFix"/>
<feBlend mode="normal" in="SourceGraphic" in2="BackgroundImageFix" result="shape"/>
<feColorMatrix in="SourceAlpha" type="matrix" values="0 0 0 0 0 0 0 0 0 0 0 0 0 0 0 0 0 0 127 0" result="hardAlpha"/>
<feOffset dy="-0.80677"/>
<feGaussianBlur stdDeviation="0.403385"/>
<feComposite in2="hardAlpha" operator="arithmetic" k2="-1" k3="1"/>
<feColorMatrix type="matrix" values="0 0 0 0 0.616667 0 0 0 0 0.407 0 0 0 0 0 0 0 0 0.25 0"/>
<feBlend mode="normal" in2="shape" result="effect1_innerShadow_341_13316"/>
</filter>
<filter id="filter2_ii_341_13316" x="20.0195" y="16.5897" width="45.7217" height="46.9944" filterUnits="userSpaceOnUse" color-interpolation-filters="sRGB">
<feFlood flood-opacity="0" result="BackgroundImageFix"/>
<feBlend mode="normal" in="SourceGraphic" in2="BackgroundImageFix" result="shape"/>
<feColorMatrix in="SourceAlpha" type="matrix" values="0 0 0 0 0 0 0 0 0 0 0 0 0 0 0 0 0 0 127 0" result="hardAlpha"/>
<feOffset dy="0.80677"/>
<feGaussianBlur stdDeviation="0.80677"/>
<feComposite in2="hardAlpha" operator="arithmetic" k2="-1" k3="1"/>
<feColorMatrix type="matrix" values="0 0 0 0 0.7 0 0 0 0 0.465967 0 0 0 0 0.0116667 0 0 0 1 0"/>
<feBlend mode="normal" in2="shape" result="effect1_innerShadow_341_13316"/>
<feColorMatrix in="SourceAlpha" type="matrix" values="0 0 0 0 0 0 0 0 0 0 0 0 0 0 0 0 0 0 127 0" result="hardAlpha"/>
<feOffset dy="-0.80677"/>
<feGaussianBlur stdDeviation="0.403385"/>
<feComposite in2="hardAlpha" operator="arithmetic" k2="-1" k3="1"/>
<feColorMatrix type="matrix" values="0 0 0 0 1 0 0 0 0 0.72 0 0 0 0 0 0 0 0 1 0"/>
<feBlend mode="normal" in2="effect1_innerShadow_341_13316" result="effect2_innerShadow_341_13316"/>
</filter>
<filter id="filter3_d_341_13316" x="26.8329" y="26.4727" width="32.0276" height="27.8909" filterUnits="userSpaceOnUse" color-interpolation-filters="sRGB">
<feFlood flood-opacity="0" result="BackgroundImageFix"/>
<feColorMatrix in="SourceAlpha" type="matrix" values="0 0 0 0 0 0 0 0 0 0 0 0 0 0 0 0 0 0 127 0" result="hardAlpha"/>
<feOffset dy="0.80677"/>
<feGaussianBlur stdDeviation="0.403385"/>
<feComposite in2="hardAlpha" operator="out"/>
<feColorMatrix type="matrix" values="0 0 0 0 0.358333 0 0 0 0 0.1935 0 0 0 0 0 0 0 0 1 0"/>
<feBlend mode="normal" in2="BackgroundImageFix" result="effect1_dropShadow_341_13316"/>
<feBlend mode="normal" in="SourceGraphic" in2="effect1_dropShadow_341_13316" result="shape"/>
</filter>
<filter id="filter4_f_341_13316" x="42.6734" y="30.1695" width="11.5086" height="24.3445" filterUnits="userSpaceOnUse" color-interpolation-filters="sRGB">
<feFlood flood-opacity="0" result="BackgroundImageFix"/>
<feBlend mode="normal" in="SourceGraphic" in2="BackgroundImageFix" result="shape"/>
<feGaussianBlur stdDeviation="1.21016" result="effect1_foregroundBlur_341_13316"/>
</filter>
<linearGradient id="paint0_linear_341_13316" x1="37.4248" y1="5.6726" x2="47.575" y2="5.6726" gradientUnits="userSpaceOnUse">
<stop offset="0.484631" stop-color="#FFE590"/>
<stop offset="0.488859" stop-color="#FFC700"/>
</linearGradient>
<linearGradient id="paint1_linear_341_13316" x1="47.5752" y1="75.2571" x2="37.425" y2="75.2571" gradientUnits="userSpaceOnUse">
<stop offset="0.484631" stop-color="#FFE590"/>
<stop offset="0.488859" stop-color="#FFC700"/>
</linearGradient>
<linearGradient id="paint2_linear_341_13316" x1="75.3947" y1="53.4972" x2="70.3764" y2="62.2545" gradientUnits="userSpaceOnUse">
<stop offset="0.484631" stop-color="#FFE590"/>
<stop offset="0.488859" stop-color="#FFC700"/>
</linearGradient>
<linearGradient id="paint3_linear_341_13316" x1="9.60525" y1="27.4325" x2="14.6236" y2="18.6752" gradientUnits="userSpaceOnUse">
<stop offset="0.484631" stop-color="#FFE590"/>
<stop offset="0.488859" stop-color="#FFC700"/>
</linearGradient>
<linearGradient id="paint4_linear_341_13316" x1="70.3195" y1="18.705" x2="75.3379" y2="27.4623" gradientUnits="userSpaceOnUse">
<stop offset="0.484631" stop-color="#FFE590"/>
<stop offset="0.488859" stop-color="#FFC700"/>
</linearGradient>
<linearGradient id="paint5_linear_341_13316" x1="14.6805" y1="62.2228" x2="9.66215" y2="53.4654" gradientUnits="userSpaceOnUse">
<stop offset="0.484631" stop-color="#FFE590"/>
<stop offset="0.488859" stop-color="#FFC700"/>
</linearGradient>
<linearGradient id="paint6_linear_341_13316" x1="22.8532" y1="17.0275" x2="64.1654" y2="63.4526" gradientUnits="userSpaceOnUse">
<stop stop-color="#FFECA9"/>
<stop offset="0.237301" stop-color="#FFD600"/>
<stop offset="1" stop-color="#FF9900"/>
</linearGradient>
<linearGradient id="paint7_linear_341_13316" x1="42.8808" y1="9.07617" x2="42.8808" y2="71.0966" gradientUnits="userSpaceOnUse">
<stop stop-color="white" stop-opacity="0.5"/>
<stop offset="1" stop-color="white" stop-opacity="0"/>
</linearGradient>
<linearGradient id="paint8_linear_341_13316" x1="25.3546" y1="19.2864" x2="60.0973" y2="61.5191" gradientUnits="userSpaceOnUse">
<stop stop-color="#FFC700"/>
<stop offset="1" stop-color="#D58500"/>
</linearGradient>
<linearGradient id="paint9_linear_341_13316" x1="27.7519" y1="21.4007" x2="46.3456" y2="62.8817" gradientUnits="userSpaceOnUse">
<stop stop-color="#FFB13C"/>
<stop offset="0.484375" stop-color="#B45F1D"/>
<stop offset="1" stop-color="#743110"/>
</linearGradient>
<linearGradient id="paint10_linear_341_13316" x1="29.6081" y1="37.3556" x2="38.8384" y2="44.1189" gradientUnits="userSpaceOnUse">
<stop stop-color="#FFE176"/>
<stop offset="1" stop-color="#FFA800"/>
</linearGradient>
<linearGradient id="paint11_linear_341_13316" x1="55.1935" y1="35.4021" x2="49.6343" y2="45.4839" gradientUnits="userSpaceOnUse">
<stop stop-color="#FFE483"/>
<stop offset="1" stop-color="#F29100"/>
</linearGradient>
<linearGradient id="paint12_linear_341_13316" x1="38.0253" y1="39.6142" x2="47.8804" y2="39.6142" gradientUnits="userSpaceOnUse">
<stop offset="0.49738" stop-color="#FCE77B"/>
<stop offset="0.49738" stop-color="#FFCC1D"/>
</linearGradient>
<linearGradient id="paint13_linear_341_13316" x1="38.0243" y1="39.6161" x2="47.8794" y2="39.6161" gradientUnits="userSpaceOnUse">
<stop offset="0.49738" stop-color="#FCE77B"/>
<stop offset="0.49738" stop-color="#FFCC1D"/>
</linearGradient>
<linearGradient id="paint14_linear_341_13316" x1="42.8839" y1="26.4727" x2="42.8839" y2="29.9428" gradientUnits="userSpaceOnUse">
<stop stop-color="#FFCD1D"/>
<stop offset="1" stop-color="#FF971D"/>
</linearGradient>
<linearGradient id="paint15_linear_341_13316" x1="29.0699" y1="31.834" x2="29.0699" y2="34.6732" gradientUnits="userSpaceOnUse">
<stop stop-color="#FFCD1D"/>
<stop offset="1" stop-color="#FF971D"/>
</linearGradient>
<linearGradient id="paint16_linear_341_13316" x1="56.6236" y1="31.834" x2="56.6236" y2="34.6732" gradientUnits="userSpaceOnUse">
<stop stop-color="#FFCD1D"/>
<stop offset="1" stop-color="#FF971D"/>
</linearGradient>
<linearGradient id="paint17_linear_341_13316" x1="34.22" y1="51.5731" x2="51.6067" y2="51.5731" gradientUnits="userSpaceOnUse">
<stop stop-color="#FDE07C"/>
<stop offset="1" stop-color="#FDE07C" stop-opacity="0"/>
</linearGradient>
</defs>
</svg>
